X:1
T:Natal! Natal!
T:Melodia Americana Arr.: Parte do Coro Pe. Ney Brasil
T:Copyright © 2011 Copy by Marcos Venicius Domingos Pasta Nº____________  /  Partitura Nº_____________ Digitalização © Info@Music / End. / e-mail: regmarcos@gmail.com International Copyright Secured. Todos os Direitos Reservados. Usado com Permissão
T:Natal! Natal!
T:Coral Litúrgico do Santíssimo Sacramento
C:Melodia Americana
C:Arr.: Parte do Coro
C:Pe. Ney Brasil
%%score [ ( 1 2 ) ( 3 4 ) ]
L:1/8
M:4/4
K:C
V:1 treble nm="P1"
V:2 treble 
V:3 bass nm="P2"
V:4 bass 
V:1
"C" z2 z2"^solo" E2 E>E |"Em" G3 G"F" A>A F>A |"C" c4 G z/ G/"G7" E>D |"Am" C2 | E>F"G7" G2 F>D | %5
w: Ei- la, cris-|tãos, a noi- te ven- tu-|ro- sa em que um|Deus|por nós ho- mens nas-|
"C" C4 z4 | z4 E2 E>E |"Em" G3 G"F" A>A F>A |"C" c4 G z/"Em" G/ ^F>E | B2 (G>A)"B7" B>B c>B | %10
w: ceu!|Veio a- pa-|gar a má- cu- la\_hor- ro-|ro- sa, que de seu|Pai as _ i- ras a- cen-|
"Em" E4"G7" z2 z3/2 G/ | G2 A2 D2 G2 |"C" A>G c>E A2 G z/ G/ |"G7" G2 A2 D2 G2 | %14
w: deu. Já|de\_es- pe- ran- ça|fre- me\_o mun- do\_in- tei- ro que|nes- ta noi- te|
"C" A>G c>E G2- G z |"Am""^tutti" c6 B>A |"Em" B6 z B |"Dm" d4- d>A A>A |"Am" c4 c2 z c | %19
w: te- ve\_um Sal- va- dor: _|Vin- de\_a- joe-|lhai! É|fin- * do\_o ca- ti-|vei- ro. Na-|
"C/G" (e4"G7/F" d3) G |"C/E" c6"C7" B>A |"G/B" G4"C" G(G"Dm" A>)G |"C" G6"C/E" z c | %23
w: tal, _ Na-|tal! Eis _|nos- so Re- * den-|tor! Na-|
"G""G/F" d6 z G |"C""F" e6 d2 |"C/G" c4"G" B2"C/G" c>"G7"d |"C" c4 z4 |] %27
w: tal, Na-|tal, (eis)|||
V:2
 x8 | x8 | x8 | x2 | x6 | x8 | x8 | x8 | x8 | x8 | x8 | x8 | x8 | x8 | x8 | E6 E>E | G6 x G | %17
w: |||||||||||||||||
 F4- F>F F>F | E4 E2 x E | G4- G3 G | G6 E2 | D4 E(E F>)F | E6 x G | B6 x G | c4 A4 | G4 G2 G>G | %26
w: |||||||* eis|nos- so Re- den-|
 G4 x4 |] %27
w: tor!|
V:3
 z8 | z8 | z8 | z2 | z6 | z8 | z8 | z8 | z8 | z8 | z8 | z8 | z8 | z8 | z8 | A,6 A,>A, | E6 z E | %17
 D4- D>D D>D | A,4 A,2 z A, | (C4 B,3) B, | G,6 C2 | B,4 C(C D>)D | C6 z E, | G,4 G,2 z F, | %24
 (G,2 C2) F4 | E4 D2 E>F | E4 z4 |] %27
V:4
 x8 | x8 | x8 | x2 | x6 | x8 | x8 | x8 | x8 | x8 | x8 | x8 | x8 | x8 | x8 | A,6 A,>A, | E,6 x E, | %17
 D,4- D,>D, D,>D, | A,,4 A,2 x A, | (G,4 F,3) F, | E,6 C,2 | B,,4 C,(C, D,>)D, | C,6 x E, | %23
 G,4- F,2 x D, | C,4 F,4 | G,4 G,2 G,>G, | C,4 x4 |] %27

